Numix/64/apps/goa-account-pocket.svg

<?xml version="1.0" encoding="UTF-8" standalone="yes"?>
<svg xmlns="http://www.w3.org/2000/svg" xmlns:xlink="http://www.w3.org/1999/xlink" width="64px" height="64px" viewBox="0 0 48 48" version="1.1">
  <g id="surface1">
    <path style=" stroke:none;fill-rule:nonzero;fill:rgb(93.333333%,25.098039%,33.333333%);fill-opacity:1;" d="M 16.617188 18.011719 C 15.78125 18.011719 14.976562 18.132812 14.5 18.683594 C 13.765625 19.527344 14.054688 21.207031 14.054688 22.226562 C 14.054688 23.785156 13.949219 25.449219 14.265625 26.984375 C 14.605469 28.628906 15.804688 30.417969 17.152344 31.535156 C 18.132812 32.34375 19.183594 32.914062 20.394531 33.382812 C 21.582031 33.796875 22.71875 33.984375 23.914062 34 C 25.007812 34 26.105469 33.886719 27.144531 33.550781 C 28.203125 33.210938 29.277344 32.722656 30.167969 32.09375 C 31.097656 31.378906 31.839844 30.675781 32.429688 29.789062 C 32.855469 29.132812 33.21875 28.417969 33.484375 27.6875 C 34.148438 25.878906 33.957031 23.757812 33.957031 21.875 C 33.957031 21.027344 34.183594 19.492188 33.609375 18.773438 C 32.742188 17.6875 30.832031 18.070312 29.40625 18.070312 L 18.472656 18.070312 C 17.929688 18.070312 17.265625 17.996094 16.617188 18 Z M 28.738281 22.648438 C 28.96875 22.648438 29.210938 22.707031 29.460938 22.859375 C 30.035156 23.203125 30.21875 24.03125 29.8125 24.542969 C 29.441406 25.023438 28.886719 25.40625 28.417969 25.800781 L 26 27.898438 C 25.464844 28.375 24.921875 29.046875 24.132812 29.121094 C 23.347656 29.191406 22.824219 28.609375 22.320312 28.152344 L 19.792969 25.953125 C 19.273438 25.523438 18.542969 25.046875 18.175781 24.496094 C 17.667969 23.714844 18.257812 22.785156 19.1875 22.664062 C 19.78125 22.585938 20.199219 22.921875 20.613281 23.253906 L 22.976562 25.296875 C 23.222656 25.507812 23.625 26.058594 23.96875 26.105469 C 24.347656 26.15625 24.929688 25.410156 25.175781 25.195312 L 26.933594 23.691406 C 27.4375 23.234375 28.042969 22.652344 28.734375 22.644531 Z M 28.738281 22.648438 "/>
    <path style=" stroke:none;fill-rule:nonzero;fill:rgb(31.764706%,73.333333%,71.764706%);fill-opacity:1;" d="M 16.171875 13.269531 L 18.339844 12.023438 C 20.109375 11.214844 22 10.804688 23.941406 10.804688 L 23.941406 9 C 21.890625 9.160156 19.953125 9.421875 18.039062 10.246094 C 17.554688 10.453125 16.515625 10.765625 16.234375 11.238281 C 15.96875 11.6875 16.171875 12.75 16.171875 13.269531 Z M 16.171875 13.269531 "/>
    <path style=" stroke:none;fill-rule:nonzero;fill:rgb(93.72549%,25.490196%,33.333333%);fill-opacity:1;" d="M 23.941406 9 L 23.941406 10.804688 C 25.808594 10.804688 27.660156 11.183594 29.359375 11.964844 L 31.710938 13.269531 C 31.710938 12.75 31.929688 11.574219 31.648438 11.136719 C 31.367188 10.707031 30.363281 10.410156 29.902344 10.210938 C 28.042969 9.414062 25.964844 9 23.941406 9 Z M 23.941406 9 "/>
    <path style=" stroke:none;fill-rule:nonzero;fill:rgb(98.431373%,71.764706%,29.411765%);fill-opacity:1;" d="M 31.710938 11.164062 C 31.710938 11.742188 31.519531 12.71875 31.746094 13.25 C 31.894531 13.597656 32.441406 13.875 32.714844 14.121094 C 33.398438 14.738281 34.050781 15.410156 34.589844 16.15625 C 36.066406 18.199219 37.183594 20.808594 37.1875 23.367188 C 37.195312 26.21875 36.605469 28.890625 35.015625 31.304688 C 34.441406 32.175781 33.742188 32.980469 32.980469 33.691406 C 32.648438 34.003906 31.925781 34.390625 31.746094 34.808594 C 31.523438 35.328125 31.710938 36.273438 31.710938 36.835938 C 33.40625 36.195312 34.980469 34.398438 36.039062 32.988281 C 39.988281 27.730469 39.988281 20.269531 36.039062 15.011719 C 34.980469 13.601562 33.40625 11.804688 31.710938 11.164062 Z M 31.710938 11.164062 "/>
    <path style=" stroke:none;fill-rule:nonzero;fill:rgb(51.372549%,92.941176%,72.54902%);fill-opacity:1;" d="M 16.113281 11.222656 C 14.214844 12.503906 12.585938 13.980469 11.339844 15.914062 C 7.964844 21.144531 8.285156 28.089844 12.011719 33.046875 C 13.074219 34.464844 14.542969 36.007812 16.175781 36.777344 C 16.175781 36.230469 16.351562 35.3125 16.136719 34.808594 C 15.960938 34.402344 15.289062 34.070312 14.96875 33.765625 C 14.1875 33.019531 13.464844 32.210938 12.867188 31.304688 C 11.273438 28.882812 10.5 25.964844 10.699219 23.066406 C 10.882812 20.382812 11.964844 17.75 13.671875 15.671875 L 15.148438 14.128906 L 16.113281 13.300781 C 16.328125 12.945312 16.269531 11.597656 16.113281 11.222656 Z M 16.113281 11.222656 "/>
    <path style=" stroke:none;fill-rule:nonzero;fill:rgb(31.764706%,73.333333%,71.764706%);fill-opacity:1;" d="M 16.171875 34.792969 C 16.171875 35.296875 15.976562 36.324219 16.234375 36.761719 C 16.515625 37.234375 17.554688 37.542969 18.039062 37.753906 C 19.953125 38.578125 21.890625 38.839844 23.941406 39 L 23.941406 37.257812 C 21.945312 37.257812 19.960938 36.832031 18.160156 35.949219 C 17.570312 35.65625 16.765625 35.320312 16.355469 34.792969 Z M 16.171875 34.792969 "/>
    <path style=" stroke:none;fill-rule:nonzero;fill:rgb(93.72549%,25.490196%,33.333333%);fill-opacity:1;" d="M 23.941406 37.257812 L 23.941406 39 C 25.964844 39 28.042969 38.585938 29.902344 37.789062 C 30.363281 37.589844 31.367188 37.292969 31.648438 36.863281 C 31.925781 36.4375 31.710938 35.296875 31.710938 34.792969 L 29.359375 36.09375 C 27.660156 36.875 25.808594 37.257812 23.941406 37.257812 M 34.359375 34.792969 L 34.417969 34.851562 Z M 34.359375 34.792969 "/>
  </g>
</svg>

<svg xmlns="http://www.w3.org/2000/svg" width="64" height="64" viewBox="0 0 48 48">
 <g>
  <path d="m 16.617 18.01 c -0.836 0 -1.641 0.121 -2.117 0.672 c -0.734 0.844 -0.445 2.523 -0.445 3.543 c 0 1.559 -0.105 3.223 0.211 4.758 c 0.34 1.645 1.539 3.434 2.887 4.551 c 0.98 0.809 2.031 1.379 3.242 1.848 c 1.188 0.414 2.324 0.602 3.52 0.617 c 1.094 0 2.191 -0.113 3.23 -0.449 c 1.059 -0.34 2.133 -0.828 3.02 -1.457 c 0.93 -0.715 1.672 -1.418 2.262 -2.305 c 0.426 -0.656 0.789 -1.371 1.055 -2.102 c 0.664 -1.809 0.473 -3.93 0.473 -5.813 c 0 -0.848 0.227 -2.383 -0.348 -3.102 c -0.867 -1.086 -2.777 -0.703 -4.203 -0.703 l -10.934 0 c -0.543 0 -1.207 -0.074 -1.855 -0.07 m 12.12 4.648 c 0.23 0 0.473 0.059 0.723 0.211 c 0.574 0.344 0.758 1.172 0.352 1.684 c -0.371 0.48 -0.926 0.863 -1.395 1.258 l -2.418 2.098 c -0.535 0.477 -1.078 1.148 -1.867 1.223 c -0.785 0.07 -1.309 -0.512 -1.813 -0.969 l -2.527 -2.199 c -0.52 -0.43 -1.25 -0.906 -1.617 -1.457 c -0.508 -0.781 0.082 -1.711 1.012 -1.832 c 0.594 -0.078 1.012 0.258 1.426 0.59 l 2.363 2.043 c 0.246 0.211 0.648 0.762 0.992 0.809 c 0.379 0.051 0.961 -0.695 1.207 -0.91 l 1.758 -1.504 c 0.504 -0.457 1.109 -1.039 1.801 -1.047 m 0.004 0.004" style="fill:#ed3f54;fill-opacity:1;stroke:none;fill-rule:nonzero"/>
  <path d="m 16.17 13.27 l 2.168 -1.246 c 1.77 -0.809 3.66 -1.219 5.602 -1.219 l 0 -1.805 c -2.051 0.16 -3.988 0.422 -5.902 1.246 c -0.484 0.207 -1.523 0.52 -1.805 0.992 c -0.266 0.449 -0.063 1.512 -0.063 2.031 m 0 0" style="fill:#51bab7;fill-opacity:1;stroke:none;fill-rule:nonzero"/>
  <path d="m 23.941 9 l 0 1.805 c 1.867 0 3.719 0.379 5.418 1.16 l 2.352 1.305 c 0 -0.52 0.219 -1.695 -0.063 -2.133 c -0.281 -0.43 -1.285 -0.727 -1.746 -0.926 c -1.859 -0.797 -3.938 -1.211 -5.961 -1.211 m 0 0" style="fill:#ee4054;fill-opacity:1;stroke:none;fill-rule:nonzero"/>
  <path d="m 31.711 11.164 c 0 0.578 -0.191 1.555 0.035 2.086 c 0.148 0.348 0.695 0.625 0.969 0.871 c 0.684 0.617 1.336 1.289 1.875 2.035 c 1.477 2.043 2.594 4.652 2.598 7.211 c 0.008 2.852 -0.582 5.523 -2.172 7.938 c -0.574 0.871 -1.273 1.676 -2.035 2.387 c -0.332 0.313 -1.055 0.699 -1.234 1.117 c -0.223 0.52 -0.035 1.465 -0.035 2.027 c 1.695 -0.641 3.27 -2.438 4.328 -3.848 c 3.949 -5.258 3.949 -12.719 0 -17.977 c -1.059 -1.41 -2.633 -3.207 -4.328 -3.848 m 0 0" style="fill:#fbb74b;fill-opacity:1;stroke:none;fill-rule:nonzero"/>
  <path d="m 16.11 11.223 c -1.898 1.281 -3.527 2.758 -4.773 4.691 c -3.375 5.23 -3.055 12.176 0.672 17.13 c 1.063 1.418 2.531 2.961 4.164 3.73 c 0 -0.547 0.176 -1.465 -0.039 -1.969 c -0.176 -0.406 -0.848 -0.738 -1.168 -1.043 c -0.781 -0.746 -1.504 -1.555 -2.102 -2.461 c -1.594 -2.422 -2.367 -5.34 -2.168 -8.238 c 0.184 -2.684 1.266 -5.316 2.973 -7.395 l 1.477 -1.543 l 0.965 -0.828 c 0.215 -0.355 0.156 -1.703 0 -2.078 m 0 0" style="fill:#82ecb9;fill-opacity:1;stroke:none;fill-rule:nonzero"/>
  <path d="m 16.17 34.793 c 0 0.504 -0.195 1.531 0.063 1.969 c 0.281 0.473 1.32 0.781 1.805 0.992 c 1.914 0.824 3.852 1.086 5.902 1.246 l 0 -1.742 c -1.996 0 -3.98 -0.426 -5.781 -1.309 c -0.59 -0.293 -1.395 -0.629 -1.805 -1.156 m -0.184 0" style="fill:#51bab7;fill-opacity:1;stroke:none;fill-rule:nonzero"/>
  <path d="m 23.941 37.26 l 0 1.742 c 2.023 0 4.102 -0.414 5.961 -1.211 c 0.461 -0.199 1.465 -0.496 1.746 -0.926 c 0.277 -0.426 0.063 -1.566 0.063 -2.07 l -2.352 1.301 c -1.699 0.781 -3.551 1.164 -5.418 1.164 m 10.418 -2.465 l 0.059 0.059 m -0.059 -0.059" style="fill:#ee4054;fill-opacity:1;stroke:none;fill-rule:nonzero"/>
 </g>
</svg>
